svg/layer/uEA4D-layer-rm.svg

<?xml version="1.0" encoding="UTF-8" standalone="no"?>
<svg
   xmlns:dc="http://purl.org/dc/elements/1.1/"
   xmlns:cc="http://creativecommons.org/ns#"
   xmlns:rdf="http://www.w3.org/1999/02/22-rdf-syntax-ns#"
   xmlns:svg="http://www.w3.org/2000/svg"
   xmlns="http://www.w3.org/2000/svg"
   xmlns:sodipodi="http://sodipodi.sourceforge.net/DTD/sodipodi-0.dtd"
   xmlns:inkscape="http://www.inkscape.org/namespaces/inkscape"
   version="1.1"
   width="100"
   height="100"
   id="svg4460"
   inkscape:version="0.92.4 (5da689c313, 2019-01-14)"
   sodipodi:docname="uEA4D-layer-rm.svg">
  <sodipodi:namedview
     pagecolor="#ffffff"
     bordercolor="#666666"
     borderopacity="1"
     objecttolerance="10"
     gridtolerance="10"
     guidetolerance="10"
     inkscape:pageopacity="0"
     inkscape:pageshadow="2"
     inkscape:window-width="1920"
     inkscape:window-height="1177"
     id="namedview11"
     showgrid="false"
     inkscape:zoom="7.61"
     inkscape:cx="69.996098"
     inkscape:cy="46.599635"
     inkscape:window-x="1272"
     inkscape:window-y="-8"
     inkscape:window-maximized="1"
     inkscape:current-layer="svg4460"
     inkscape:document-rotation="0" />
  <defs
     id="defs4462" />
  <metadata
     id="metadata4465">
    <rdf:RDF>
      <cc:Work
         rdf:about="">
        <dc:format>image/svg+xml</dc:format>
        <dc:type
           rdf:resource="http://purl.org/dc/dcmitype/StillImage" />
        <dc:title />
      </cc:Work>
    </rdf:RDF>
  </metadata>
  <path
     style="color:#000000;font-style:normal;font-variant:normal;font-weight:normal;font-stretch:normal;font-size:medium;line-height:normal;font-family:sans-serif;font-variant-ligatures:normal;font-variant-position:normal;font-variant-caps:normal;font-variant-numeric:normal;font-variant-alternates:normal;font-feature-settings:normal;text-indent:0;text-align:start;text-decoration:none;text-decoration-line:none;text-decoration-style:solid;text-decoration-color:#000000;letter-spacing:normal;word-spacing:normal;text-transform:none;writing-mode:lr-tb;direction:ltr;text-orientation:mixed;dominant-baseline:auto;baseline-shift:baseline;text-anchor:start;white-space:normal;shape-padding:0;clip-rule:nonzero;display:inline;overflow:visible;visibility:visible;opacity:1;isolation:auto;mix-blend-mode:normal;color-interpolation:sRGB;color-interpolation-filters:linearRGB;solid-color:#000000;solid-opacity:1;vector-effect:none;fill:#000080;fill-opacity:1;fill-rule:nonzero;stroke:none;stroke-width:7;stroke-linecap:round;stroke-linejoin:round;stroke-miterlimit:4;stroke-dasharray:none;stroke-dashoffset:0;stroke-opacity:1;color-rendering:auto;image-rendering:auto;shape-rendering:auto;text-rendering:auto;enable-background:accumulate"
     d="M 80.5,0 C 73.354976,0 67.247641,4.2463178 64.523438,10.357422 H 28.134766 c -1.027378,-1.4e-5 -2.002889,0.451321 -2.667969,1.234375 L 0.83203125,40.607422 c -1.93068785,2.274369 -0.31341649,5.766823 2.66992185,5.765625 l 92.9999999,-0.06445 c 2.981505,-0.0021 4.595517,-3.492654 2.666016,-5.765625 L 91.298828,31.271484 C 95.378123,28.073051 98,23.108594 98,17.5 98,7.805405 90.194595,0 80.5,0 Z M 93,14 v 7 H 68 v -7 z m -3.089844,37.3125 -9.177734,0.0078 8.210937,9.669922 -77.875,0.05273 8.21875,-9.681641 -9.1875,0.0078 -9.26757775,10.914062 c -1.93068785,2.274369 -0.31341651,5.766823 2.66992185,5.765625 l 92.9999999,-0.06445 c 2.981505,-0.0021 4.595517,-3.492654 2.666016,-5.765625 z m 0,21.59375 -9.177734,0.0078 8.210937,9.669922 -77.875,0.05273 8.21875,-9.681641 -9.1875,0.0078 -9.26757775,10.914062 c -1.93068785,2.274369 -0.31341651,5.766823 2.66992185,5.765625 l 92.9999999,-0.06445 c 2.981505,-0.0021 4.595517,-3.492654 2.666016,-5.765625 z"
     id="path951"
     inkscape:connector-curvature="0"
     sodipodi:nodetypes="sccccccccssccccccccccccccccccccccccccc" />
</svg>

<?xml version="1.0" encoding="UTF-8" standalone="no"?>
<svg
   xmlns:dc="http://purl.org/dc/elements/1.1/"
   xmlns:cc="http://creativecommons.org/ns#"
   xmlns:rdf="http://www.w3.org/1999/02/22-rdf-syntax-ns#"
   xmlns:svg="http://www.w3.org/2000/svg"
   xmlns="http://www.w3.org/2000/svg"
   xmlns:sodipodi="http://sodipodi.sourceforge.net/DTD/sodipodi-0.dtd"
   xmlns:inkscape="http://www.inkscape.org/namespaces/inkscape"
   version="1.1"
   width="100"
   height="100"
   id="svg4460"
   inkscape:version="1.0 (4035a4fb49, 2020-05-01)"
   sodipodi:docname="layer-rm.svg">
  <sodipodi:namedview
     pagecolor="#ffffff"
     bordercolor="#666666"
     borderopacity="1"
     objecttolerance="10"
     gridtolerance="10"
     guidetolerance="10"
     inkscape:pageopacity="0"
     inkscape:pageshadow="2"
     inkscape:window-width="1920"
     inkscape:window-height="1017"
     id="namedview11"
     showgrid="false"
     inkscape:zoom="5.3810826"
     inkscape:cx="92.338252"
     inkscape:cy="29.184341"
     inkscape:window-x="-8"
     inkscape:window-y="-8"
     inkscape:window-maximized="1"
     inkscape:current-layer="svg4460"
     inkscape:document-rotation="0" />
  <defs
     id="defs4462" />
  <metadata
     id="metadata4465">
    <rdf:RDF>
      <cc:Work
         rdf:about="">
        <dc:format>image/svg+xml</dc:format>
        <dc:type
           rdf:resource="http://purl.org/dc/dcmitype/StillImage" />
        <dc:title></dc:title>
      </cc:Work>
    </rdf:RDF>
  </metadata>
  <path
     d="M 79.886719 5 C 75.492757 5.033229 71.334329 6.9914379 68.509766 10.357422 L 28.134766 10.357422 C 27.107388 10.357408 26.131877 10.808743 25.466797 11.591797 L 0.83203125 40.607422 C -1.0986566 42.881791 0.51861472 46.374245 3.5019531 46.373047 L 96.501953 46.308594 C 99.483458 46.306494 101.09747 42.81594 99.167969 40.542969 L 90.673828 30.537109 C 93.44527 27.730197 94.999517 23.944571 95 20 C 95 11.715729 88.284271 5 80 5 C 79.96224 4.9998574 79.924479 4.9998574 79.886719 5 z M 70.083984 17.083984 L 89.916016 17.083984 L 89.916016 22.916016 L 70.083984 22.916016 L 70.083984 17.083984 z M 89.910156 51.3125 L 80.732422 51.320312 L 88.943359 60.990234 L 11.068359 61.042969 L 19.287109 51.361328 L 10.099609 51.369141 L 0.83203125 62.283203 C -1.0986566 64.557572 0.5186147 68.050026 3.5019531 68.048828 L 96.501953 67.984375 C 99.483458 67.982275 101.09747 64.491721 99.167969 62.21875 L 89.910156 51.3125 z M 89.910156 72.90625 L 80.732422 72.914062 L 88.943359 82.583984 L 11.068359 82.636719 L 19.287109 72.955078 L 10.099609 72.962891 L 0.83203125 83.876953 C -1.0986566 86.151322 0.5186147 89.643776 3.5019531 89.642578 L 96.501953 89.578125 C 99.483458 89.576025 101.09747 86.085471 99.167969 83.8125 L 89.910156 72.90625 z "
     style="color:#000000;font-style:normal;font-variant:normal;font-weight:normal;font-stretch:normal;font-size:medium;line-height:normal;font-family:sans-serif;font-variant-ligatures:normal;font-variant-position:normal;font-variant-caps:normal;font-variant-numeric:normal;font-variant-alternates:normal;font-variant-east-asian:normal;font-feature-settings:normal;font-variation-settings:normal;text-indent:0;text-align:start;text-decoration:none;text-decoration-line:none;text-decoration-style:solid;text-decoration-color:#000000;letter-spacing:normal;word-spacing:normal;text-transform:none;writing-mode:lr-tb;direction:ltr;text-orientation:mixed;dominant-baseline:auto;baseline-shift:baseline;text-anchor:start;white-space:normal;shape-padding:0;shape-margin:0;inline-size:0;clip-rule:nonzero;display:inline;overflow:visible;visibility:visible;opacity:1;isolation:auto;mix-blend-mode:normal;color-interpolation:sRGB;color-interpolation-filters:linearRGB;solid-color:#000000;solid-opacity:1;vector-effect:none;fill:#000080;fill-opacity:1;fill-rule:nonzero;stroke:none;stroke-width:7;stroke-linecap:round;stroke-linejoin:round;stroke-miterlimit:4;stroke-dasharray:none;stroke-dashoffset:0;stroke-opacity:1;color-rendering:auto;image-rendering:auto;shape-rendering:auto;text-rendering:auto;enable-background:accumulate;stop-color:#000000;stop-opacity:1"
     id="path951" />
</svg>
